icons/security-file-shield-2.svg

<svg fill="none" viewBox="0 0 24 24"><path stroke="currentColor" stroke-linecap="round" stroke-linejoin="round" stroke-width="2" d="M10.2 21.6h-2.4a3.6 3.6 0 0 1-3.6-3.6v-12a3.6 3.6 0 0 1 3.6-3.6h8.4a3.6 3.6 0 0 1 3.6 3.6v3m-4.2-1.8h-7.8m4.2 3.6h-4.2m2.4 3.6h-2.4m6 .3 1.4-.7a4 4 0 0 1 3.2 0l1.4.7v3.3q0 1.6-3 3.2-3-1.7-3-3.2z"/></svg>

<svg fill="none" viewBox="0 0 24 24"><path stroke="currentColor" stroke-linecap="round" stroke-linejoin="round" stroke-width="2" d="M10.2 21.6H7.8A3.6 3.6 0 0 1 4.2 18V6a3.6 3.6 0 0 1 3.6-3.6h8.4A3.6 3.6 0 0 1 19.8 6v3m-4.2-1.8H7.8m4.2 3.6H7.8m2.4 3.6H7.8m6 .3 1.4-.7a4 4 0 0 1 3.2 0l1.4.7V18q0 1.6-3 3.2-3-1.7-3-3.2z"/></svg>
